X: 1
T: Devin the Drummer
C: Chris Caswell, 1997
L: 1/8
M: 6/8
K: D
|: "A"GBG AAA | ABd e2 e | GBG AAA | "D"Aee dcB |
"A"GBG AAA | ABd e2 e | "G"g2 e edc |1 "D"ddd dcB :|2 "D"ddd dcA |
|: "G"g2 e edc | "D"ddd Bde | "G"g2 e edc | "D"ddd dcA |
"G"g2 e edc | "D"ddd Bde | "A"gea ege | "D"ddd dcA :|
|: "A"eA"A"f A"A"eA | "A"eee edc | "A"eA"A"f A"A"eA | "D"ddd dcA |
"A"eA"A"f A"A"eA | "A"eee edc | "G"g2 e edc |1 "D"ddd dcA :|2 "D"ddd dcB |
|: "A"AaB acd | eee edc | AaB ace | "D"ddd dcB |
"A"AaB acd | eee edc |  "G"g2 e edc | "D"ddd dcB :|

%% scale 0.87
%%newpage
%%header "Little Thatched Cabin, Bird in the Bush		$P"

